X: 1
T: At the Fair
O: Trad
R: reel
B: RSCDS 33-1
Z: 1997 by John Chambers <jc:trillian.mit.edu>
N: Harding's Collection
M: C|
L: 1/8
K: C
|: "C"c2ec g2ec | "C"c2ec "G7"Bcde \
|1 "C"c2ec "(Am)"g2fe | "Dm"fedc "G7"Bcde \
:|2 "Am"c2ec "Em"g2fe | "Dm"fe"D7"dc "G"Bc"E7"de |]
|: "Am"c2ec "Em"B2eB | "F"A2cA "C"G2AG \
|1 "Dm"F2GF "C"EGce | "D7"dABc "G"edBG \
:|2 "Dm"F2"(G)"GF "C"EGce | "F"Ad"G7"BG "C"c2z2 |]
